; generated by PrusaSlicer 2.4.0+linux-x64 on 2022-05-07 at 15:25:57 UTC


;
;

;
;
; 

; external perimeters extrusion width = 0.45mm
; perimeters extrusion width = 0.45mm
; infill extrusion width = 0.45mm
; solid infill extrusion width = 0.45mm
; top infill extrusion width = 0.40mm
; first layer extrusion width = 0.42mm

M201 X9000 Y9000 Z500 E10000 ; sets maximum accelerations, mm/sec^2
M203 X500 Y500 Z12 E120 ; sets maximum feedrates, mm/sec
M204 P1500 R1500 T1500 ; sets acceleration (P, T) and retract acceleration (R), mm/sec^2
M205 X10.00 Y10.00 Z0.20 E2.50 ; sets the jerk limits, mm/sec
M205 S0 T0 ; sets the minimum extruding and travel feed rate, mm/sec
M107
M190 S60 ; set bed temperature and wait for it to be reached
M104 S200 ; set temperature
;TYPE:Custom
G28 ; home all axes
G1 Z5 F5000 ; lift nozzle
M109 S200 ; set temperature and wait for it to be reached
G21 ; set units to millimeters
G90 ; use absolute coordinates
M82 ; use absolute distances for extrusion
G92 E0
; Filament gcode
M107
;LAYER_CHANGE
;Z:0.35
;HEIGHT:0.35
G1 Z.35 F7800
G1 E-2 F2400
G92 E0
G1 X99.468 Y100.134 F7800
G1 E2 F2400
;TYPE:Skirt/Brim
;WIDTH:0.42
G1 F1800
G1 X101.21 Y98.719 E2.11262
G1 X104.275 Y97.93 E2.27146
G1 X115.725 Y97.93 E2.84608
G1 X117.934 Y98.327 E2.95871
G1 X119.866 Y99.468 E3.07133
G1 X121.281 Y101.21 E3.18395
G1 X122.07 Y104.275 E3.34278
G1 X122.07 Y115.725 E3.91741
G1 X121.673 Y117.934 E4.03003
G1 X120.532 Y119.866 E4.14265
G1 X118.79 Y121.281 E4.25528
G1 X115.725 Y122.07 E4.41411
G1 X104.275 Y122.07 E4.98874
G1 X102.066 Y121.673 E5.10136
G1 X100.134 Y120.532 E5.21398
G1 X98.719 Y118.79 E5.3266
G1 X97.93 Y115.725 E5.48544
G1 X97.93 Y104.275 E6.06007
G1 X98.327 Y102.066 E6.17269
G1 X99.437 Y100.186 E6.2823
G1 E4.2823 F2400
G92 E0
G1 X106.175 Y105.375 F7800
G1 E2 F2400
;TYPE:Perimeter
G1 F1800
G1 X114.625 Y105.375 E2.42409
G1 X114.625 Y114.625 E2.88834
G1 X105.375 Y114.625 E3.35258
G1 X105.375 Y105.375 E3.81682
G1 X106.115 Y105.375 E3.85396
G1 X105.43 Y105.03 F7800
G1 F1800
G1 X114.97 Y105.03 E4.33274
G1 X114.97 Y114.97 E4.8316
G1 X105.03 Y114.97 E5.33046
G1 X105.03 Y105.03 E5.82932
G1 X105.37 Y105.03 E5.84638
G1 X104.685 Y104.685 F7800
;TYPE:External perimeter
G1 F1800
G1 X115.315 Y104.685 E6.37986
G1 X115.315 Y115.315 E6.91334
G1 X104.685 Y115.315 E7.44681
G1 X104.685 Y104.745 E7.97728
G1 X105.071 Y104.789 F7800
G1 E5.97728 F2400
G92 E0
G1 X114.522 Y106.18 F7800
G1 E2 F2400
;TYPE:Solid infill
;WIDTH:0.422091
G1 F1800
G1 X113.975 Y105.633 E2.03902
G1 X113.485 Y105.633 E2.06379
G1 X114.367 Y106.515 E2.12677
G1 X114.367 Y107.006 E2.15154
G1 X112.994 Y105.633 E2.24956
G1 X112.503 Y105.633 E2.27433
G1 X114.367 Y107.497 E2.40738
G1 X114.367 Y107.987 E2.43216
G1 X112.013 Y105.633 E2.60025
G1 X111.522 Y105.633 E2.62502
G1 X114.367 Y108.478 E2.82815
G1 X114.367 Y108.969 E2.85292
G1 X111.031 Y105.633 E3.09109
G1 X110.54 Y105.633 E3.11586
G1 X114.367 Y109.46 E3.38907
G1 X114.367 Y109.95 E3.41384
G1 X110.05 Y105.633 E3.72208
G1 X109.559 Y105.633 E3.74686
G1 X114.367 Y110.441 E4.09014
G1 X114.367 Y110.932 E4.11491
G1 X109.068 Y105.633 E4.49323
G1 X108.578 Y105.633 E4.51801
G1 X114.367 Y111.422 E4.93136
G1 X114.367 Y111.913 E4.95614
G1 X108.087 Y105.633 E5.40453
G1 X107.596 Y105.633 E5.42931
G1 X114.367 Y112.404 E5.91274
G1 X114.367 Y112.895 E5.93752
G1 X107.105 Y105.633 E6.45599
G1 X106.615 Y105.633 E6.48076
G1 X114.367 Y113.385 E7.03427
G1 X114.367 Y113.876 E7.05904
G1 X106.124 Y105.633 E7.64759
G1 X105.633 Y105.633 E7.67236
G1 X114.367 Y114.367 E8.29594
G1 X113.876 Y114.367 E8.32072
G1 X105.633 Y106.124 E8.90925
G1 X105.633 Y106.615 E8.93403
G1 X113.385 Y114.367 E9.48753
G1 X112.894 Y114.367 E9.5123
G1 X105.633 Y107.106 E10.03076
G1 X105.633 Y107.596 E10.05554
G1 X112.404 Y114.367 E10.53896
G1 X111.913 Y114.367 E10.56374
G1 X105.633 Y108.087 E11.01212
G1 X105.633 Y108.578 E11.0369
G1 X111.422 Y114.367 E11.45024
G1 X110.932 Y114.367 E11.47502
G1 X105.633 Y109.068 E11.85333
G1 X105.633 Y109.559 E11.8781
G1 X110.441 Y114.367 E12.22137
G1 X109.95 Y114.367 E12.24615
G1 X105.633 Y110.05 E12.55438
G1 X105.633 Y110.541 E12.57916
G1 X109.459 Y114.367 E12.85235
G1 X108.969 Y114.367 E12.87713
G1 X105.633 Y111.031 E13.11528
G1 X105.633 Y111.522 E13.14006
G1 X108.478 Y114.367 E13.34318
G1 X107.987 Y114.367 E13.36795
G1 X105.633 Y112.013 E13.53603
G1 X105.633 Y112.503 E13.56081
G1 X107.497 Y114.367 E13.69385
G1 X107.006 Y114.367 E13.71862
G1 X105.633 Y112.994 E13.81663
G1 X105.633 Y113.485 E13.8414
G1 X106.515 Y114.367 E13.90437
G1 X106.025 Y114.367 E13.92914
G1 X105.478 Y113.82 E13.96815
;LAYER_CHANGE
;Z:0.65
;HEIGHT:0.3
G1 Z.65 F7800
G1 X106.071 Y105.271
;TYPE:Perimeter
;WIDTH:0.45
G1 F900
G1 X114.729 Y105.271 E14.38455
G1 X114.729 Y114.729 E14.83942
G1 X105.271 Y114.729 E15.2943
G1 X105.271 Y105.271 E15.74917
G1 X106.011 Y105.271 E15.78477
G1 X105.286 Y104.886 F7800
G1 F3600
G1 X115.114 Y104.886 E16.2575
G1 X115.114 Y115.114 E16.74946
G1 X104.886 Y115.114 E17.24143
G1 X104.886 Y104.886 E17.7334
G1 X105.226 Y104.886 E17.74975
G1 X104.5 Y104.685 F7800
;TYPE:External perimeter
G1 F1800
G1 X104.5 Y104.5 E17.75865
G1 X115.5 Y104.5 E18.28772
G1 X115.5 Y115.5 E18.81678
G1 X104.5 Y115.5 E19.34584
G1 X104.5 Y104.745 E19.86312
G1 X104.63 Y104.554 F7800
G1 X114.613 Y113.809
;TYPE:Solid infill
;WIDTH:0.461421
G1 F1200
G1 X113.983 Y114.44 E19.90726
G1 X113.421 Y114.44 E19.93506
G1 X114.44 Y113.421 E20.00637
G1 X114.44 Y112.86 E20.03418
G1 X112.86 Y114.44 E20.14481
G1 X112.298 Y114.44 E20.17261
G1 X114.44 Y112.298 E20.32257
G1 X114.44 Y111.737 E20.35037
G1 X111.737 Y114.44 E20.53965
G1 X111.175 Y114.44 E20.56746
G1 X114.44 Y111.175 E20.79606
G1 X114.44 Y110.614 E20.82387
G1 X110.614 Y114.44 E21.09179
G1 X110.052 Y114.44 E21.1196
G1 X114.44 Y110.052 E21.42685
G1 X114.44 Y109.491 E21.45466
G1 X109.491 Y114.44 E21.80123
G1 X108.929 Y114.44 E21.82904
G1 X114.44 Y108.929 E22.21493
G1 X114.44 Y108.368 E22.24274
G1 X108.368 Y114.44 E22.66796
G1 X107.806 Y114.44 E22.69577
G1 X114.44 Y107.806 E23.16031
G1 X114.44 Y107.245 E23.18812
G1 X107.245 Y114.44 E23.69198
G1 X106.683 Y114.44 E23.71979
G1 X114.44 Y106.683 E24.26298
G1 X114.44 Y106.122 E24.29079
G1 X106.122 Y114.44 E24.8733
G1 X105.56 Y114.44 E24.90111
G1 X114.439 Y105.56 E25.52294
G1 X113.878 Y105.56 E25.55074
G1 X105.56 Y113.878 E26.13325
G1 X105.56 Y113.316 E26.16106
G1 X113.316 Y105.56 E26.70424
G1 X112.755 Y105.56 E26.73204
G1 X105.56 Y112.755 E27.2359
G1 X105.56 Y112.193 E27.26371
G1 X112.193 Y105.56 E27.72824
G1 X111.632 Y105.56 E27.75605
G1 X105.56 Y111.632 E28.18126
G1 X105.56 Y111.07 E28.20907
G1 X111.07 Y105.56 E28.59495
G1 X110.509 Y105.56 E28.62276
G1 X105.56 Y110.509 E28.96932
G1 X105.56 Y109.947 E28.99713
G1 X109.947 Y105.56 E29.30437
G1 X109.386 Y105.56 E29.33218
G1 X105.56 Y109.386 E29.60009
G1 X105.56 Y108.824 E29.6279
G1 X108.825 Y105.56 E29.85649
G1 X108.263 Y105.56 E29.8843
G1 X105.56 Y108.263 E30.07357
G1 X105.56 Y107.702 E30.10137
G1 X107.702 Y105.56 E30.25132
G1 X107.14 Y105.56 E30.27912
G1 X105.56 Y107.14 E30.38975
G1 X105.56 Y106.579 E30.41755
G1 X106.579 Y105.56 E30.48885
G1 X106.017 Y105.56 E30.51666
G1 X105.387 Y106.191 E30.56078
;LAYER_CHANGE
;Z:0.95
;HEIGHT:0.3
G1 Z.95 F7800
G1 X106.071 Y105.271
;TYPE:Perimeter
;WIDTH:0.45
G1 F900
G1 X114.729 Y105.271 E30.97718
G1 X114.729 Y114.729 E31.43206
G1 X105.271 Y114.729 E31.88693
G1 X105.271 Y105.271 E32.34181
G1 X106.011 Y105.271 E32.3774
G1 X105.286 Y104.886 F7800
G1 F3600
G1 X115.114 Y104.886 E32.85013
G1 X115.114 Y115.114 E33.3421
G1 X104.886 Y115.114 E33.83407
G1 X104.886 Y104.886 E34.32603
G1 X105.226 Y104.886 E34.34239
G1 X104.5 Y104.685 F7800
;TYPE:External perimeter
G1 F1800
G1 X104.5 Y104.5 E34.35129
G1 X115.5 Y104.5 E34.88035
G1 X115.5 Y115.5 E35.40941
G1 X104.5 Y115.5 E35.93847
G1 X104.5 Y104.745 E36.45575
G1 X104.63 Y104.554 F7800
G1 X114.613 Y106.191
;TYPE:Solid infill
;WIDTH:0.461421
G1 F1200
G1 X113.983 Y105.56 E36.49989
G1 X113.421 Y105.56 E36.52769
G1 X114.44 Y106.579 E36.599
G1 X114.44 Y107.14 E36.62681
G1 X112.86 Y105.56 E36.73744
G1 X112.298 Y105.56 E36.76525
G1 X114.44 Y107.702 E36.9152
G1 X114.44 Y108.263 E36.94301
G1 X111.737 Y105.56 E37.13229
G1 X111.175 Y105.56 E37.16009
G1 X114.44 Y108.825 E37.38869
G1 X114.44 Y109.386 E37.4165
G1 X110.614 Y105.56 E37.68443
G1 X110.052 Y105.56 E37.71223
G1 X114.44 Y109.948 E38.01948
G1 X114.44 Y110.509 E38.04729
G1 X109.491 Y105.56 E38.39386
G1 X108.929 Y105.56 E38.42167
G1 X114.44 Y111.071 E38.80756
G1 X114.44 Y111.632 E38.83537
G1 X108.368 Y105.56 E39.26059
G1 X107.806 Y105.56 E39.2884
G1 X114.44 Y112.194 E39.75294
G1 X114.44 Y112.755 E39.78075
G1 X107.245 Y105.56 E40.28462
G1 X106.683 Y105.56 E40.31242
G1 X114.44 Y113.317 E40.85561
G1 X114.44 Y113.878 E40.88342
G1 X106.122 Y105.56 E41.46593
G1 X105.56 Y105.56 E41.49374
G1 X114.439 Y114.44 E42.11557
G1 X113.878 Y114.44 E42.14338
G1 X105.56 Y106.122 E42.72588
G1 X105.56 Y106.684 E42.75369
G1 X113.316 Y114.44 E43.29687
G1 X112.755 Y114.44 E43.32468
G1 X105.56 Y107.245 E43.82853
G1 X105.56 Y107.807 E43.85634
G1 X112.193 Y114.44 E44.32087
G1 X111.632 Y114.44 E44.34868
G1 X105.56 Y108.368 E44.77389
G1 X105.56 Y108.93 E44.8017
G1 X111.07 Y114.44 E45.18759
G1 X110.509 Y114.44 E45.21539
G1 X105.56 Y109.491 E45.56196
G1 X105.56 Y110.053 E45.58976
G1 X109.947 Y114.44 E45.897
G1 X109.386 Y114.44 E45.92481
G1 X105.56 Y110.614 E46.19272
G1 X105.56 Y111.176 E46.22053
G1 X108.825 Y114.44 E46.44912
G1 X108.263 Y114.44 E46.47693
G1 X105.56 Y111.737 E46.6662
G1 X105.56 Y112.298 E46.694
G1 X107.702 Y114.44 E46.84395
G1 X107.14 Y114.44 E46.87176
G1 X105.56 Y112.86 E46.98238
G1 X105.56 Y113.421 E47.01018
G1 X106.579 Y114.44 E47.08148
G1 X106.017 Y114.44 E47.10929
G1 X105.387 Y113.809 E47.15342
M106 S252.45
;LAYER_CHANGE
;Z:1.25
;HEIGHT:0.3
G1 Z1.25 F7800
G1 X106.071 Y105.271
;TYPE:Perimeter
;WIDTH:0.45
G1 F900
G1 X114.729 Y105.271 E47.56981
G1 X114.729 Y114.729 E48.02469
G1 X105.271 Y114.729 E48.47956
G1 X105.271 Y105.271 E48.93444
G1 X106.011 Y105.271 E48.97003
G1 X105.286 Y104.886 F7800
G1 F3600
G1 X115.114 Y104.886 E49.44276
G1 X115.114 Y115.114 E49.93473
G1 X104.886 Y115.114 E50.4267
G1 X104.886 Y104.886 E50.91867
G1 X105.226 Y104.886 E50.93502
G1 X104.5 Y104.685 F7800
;TYPE:External perimeter
G1 F1800
G1 X104.5 Y104.5 E50.94392
G1 X115.5 Y104.5 E51.47298
G1 X115.5 Y115.5 E52.00204
G1 X104.5 Y115.5 E52.5311
G1 X104.5 Y104.745 E53.04838
G1 X104.63 Y104.554 F7800
G1 X114.44 Y109.491
;TYPE:Internal infill
G1 F4800
G1 X114.44 Y111.805 E53.15966
G1 X105.56 Y114.184 E53.60178
G1 X105.56 Y113.741 E53.62309
G1 X106.259 Y114.44 E53.67063
G1 X108.81 Y114.44 E53.79333
G1 X111.19 Y105.56 E54.23545
G1 X113.741 Y105.56 E54.35815
G1 X114.44 Y106.259 E54.40569
G1 X114.44 Y105.816 E54.427
G1 X105.56 Y108.195 E54.86912
G1 X105.56 Y105.56 E54.99585
G1 X114.44 Y114.44 E55.59979
G1 X112.126 Y114.44 E55.71108
;LAYER_CHANGE
;Z:1.55
;HEIGHT:0.3
G1 Z1.55 F7800
G1 X106.071 Y105.271
;TYPE:Perimeter
G1 F900
G1 X114.729 Y105.271 E56.12747
G1 X114.729 Y114.729 E56.58235
G1 X105.271 Y114.729 E57.03722
G1 X105.271 Y105.271 E57.4921
G1 X106.011 Y105.271 E57.52769
G1 X105.286 Y104.886 F7800
G1 F3600
G1 X115.114 Y104.886 E58.00042
G1 X115.114 Y115.114 E58.49239
G1 X104.886 Y115.114 E58.98436
G1 X104.886 Y104.886 E59.47633
G1 X105.226 Y104.886 E59.49268
G1 X104.5 Y104.685 F7800
;TYPE:External perimeter
G1 F1800
G1 X104.5 Y104.5 E59.50158
G1 X115.5 Y104.5 E60.03064
G1 X115.5 Y115.5 E60.5597
G1 X104.5 Y115.5 E61.08876
G1 X104.5 Y104.745 E61.60604
G1 X104.63 Y104.554 F7800
G1 X114.44 Y109.491
;TYPE:Internal infill
G1 F4800
G1 X114.44 Y111.805 E61.71733
G1 X105.56 Y114.184 E62.15944
G1 X105.56 Y113.741 E62.18075
G1 X106.259 Y114.44 E62.22829
G1 X108.81 Y114.44 E62.35099
G1 X111.19 Y105.56 E62.79311
G1 X113.741 Y105.56 E62.91581
G1 X114.44 Y106.259 E62.96335
G1 X114.44 Y105.816 E62.98466
G1 X105.56 Y108.195 E63.42678
G1 X105.56 Y105.56 E63.55351
G1 X114.44 Y114.44 E64.15745
G1 X112.126 Y114.44 E64.26874
;LAYER_CHANGE
;Z:1.85
;HEIGHT:0.3
G1 Z1.85 F7800
G1 X106.071 Y105.271
;TYPE:Perimeter
G1 F900
G1 X114.729 Y105.271 E64.68513
G1 X114.729 Y114.729 E65.14001
G1 X105.271 Y114.729 E65.59488
G1 X105.271 Y105.271 E66.04976
G1 X106.011 Y105.271 E66.08535
G1 X105.286 Y104.886 F7800
G1 F3600
G1 X115.114 Y104.886 E66.55808
G1 X115.114 Y115.114 E67.05005
G1 X104.886 Y115.114 E67.54202
G1 X104.886 Y104.886 E68.03399
G1 X105.226 Y104.886 E68.05034
G1 X104.5 Y104.685 F7800
;TYPE:External perimeter
G1 F1800
G1 X104.5 Y104.5 E68.05924
G1 X115.5 Y104.5 E68.5883
G1 X115.5 Y115.5 E69.11736
G1 X104.5 Y115.5 E69.64642
G1 X104.5 Y104.745 E70.1637
G1 X104.63 Y104.554 F7800
G1 X114.44 Y109.491
;TYPE:Internal infill
G1 F4800
G1 X114.44 Y111.805 E70.27499
G1 X105.56 Y114.184 E70.7171
G1 X105.56 Y113.741 E70.73841
G1 X106.259 Y114.44 E70.78595
G1 X108.81 Y114.44 E70.90865
G1 X111.19 Y105.56 E71.35077
G1 X113.741 Y105.56 E71.47347
G1 X114.44 Y106.259 E71.52101
G1 X114.44 Y105.816 E71.54232
G1 X105.56 Y108.195 E71.98444
G1 X105.56 Y105.56 E72.11117
G1 X114.44 Y114.44 E72.71511
G1 X112.126 Y114.44 E72.8264
;LAYER_CHANGE
;Z:2.15
;HEIGHT:0.3
G1 Z2.15 F7800
G1 X106.071 Y105.271
;TYPE:Perimeter
G1 F900
G1 X114.729 Y105.271 E73.24279
G1 X114.729 Y114.729 E73.69767
G1 X105.271 Y114.729 E74.15254
G1 X105.271 Y105.271 E74.60742
G1 X106.011 Y105.271 E74.64301
G1 X105.286 Y104.886 F7800
G1 F3600
G1 X115.114 Y104.886 E75.11574
G1 X115.114 Y115.114 E75.60771
G1 X104.886 Y115.114 E76.09968
G1 X104.886 Y104.886 E76.59165
G1 X105.226 Y104.886 E76.608
G1 X104.5 Y104.685 F7800
;TYPE:External perimeter
G1 F1800
G1 X104.5 Y104.5 E76.6169
G1 X115.5 Y104.5 E77.14596
G1 X115.5 Y115.5 E77.67502
G1 X104.5 Y115.5 E78.20408
G1 X104.5 Y104.745 E78.72136
G1 X104.63 Y104.554 F7800
G1 X114.44 Y109.491
;TYPE:Internal infill
G1 F4800
G1 X114.44 Y111.805 E78.83265
G1 X105.56 Y114.184 E79.27476
G1 X105.56 Y113.741 E79.29607
G1 X106.259 Y114.44 E79.34361
G1 X108.81 Y114.44 E79.46631
G1 X111.19 Y105.56 E79.90843
G1 X113.741 Y105.56 E80.03113
G1 X114.44 Y106.259 E80.07867
G1 X114.44 Y105.816 E80.09998
G1 X105.56 Y108.195 E80.5421
G1 X105.56 Y105.56 E80.66883
G1 X114.44 Y114.44 E81.27277
G1 X112.126 Y114.44 E81.38406
;LAYER_CHANGE
;Z:2.45
;HEIGHT:0.3
G1 Z2.45 F7800
G1 X106.071 Y105.271
;TYPE:Perimeter
G1 F900
G1 X114.729 Y105.271 E81.80045
G1 X114.729 Y114.729 E82.25533
G1 X105.271 Y114.729 E82.7102
G1 X105.271 Y105.271 E83.16508
G1 X106.011 Y105.271 E83.20067
G1 X105.286 Y104.886 F7800
G1 F3600
G1 X115.114 Y104.886 E83.6734
G1 X115.114 Y115.114 E84.16537
G1 X104.886 Y115.114 E84.65734
G1 X104.886 Y104.886 E85.14931
G1 X105.226 Y104.886 E85.16566
G1 X104.5 Y104.685 F7800
;TYPE:External perimeter
G1 F1800
G1 X104.5 Y104.5 E85.17456
G1 X115.5 Y104.5 E85.70362
G1 X115.5 Y115.5 E86.23268
G1 X104.5 Y115.5 E86.76174
G1 X104.5 Y104.745 E87.27902
G1 X104.63 Y104.554 F7800
G1 X114.44 Y109.491
;TYPE:Internal infill
G1 F4800
G1 X114.44 Y111.805 E87.39031
G1 X105.56 Y114.184 E87.83242
G1 X105.56 Y113.741 E87.85374
G1 X106.259 Y114.44 E87.90127
G1 X108.81 Y114.44 E88.02397
G1 X111.19 Y105.56 E88.46609
G1 X113.741 Y105.56 E88.58879
G1 X114.44 Y106.259 E88.63633
G1 X114.44 Y105.816 E88.65764
G1 X105.56 Y108.195 E89.09976
G1 X105.56 Y105.56 E89.22649
G1 X114.44 Y114.44 E89.83044
G1 X112.126 Y114.44 E89.94172
;LAYER_CHANGE
;Z:2.75
;HEIGHT:0.3
G1 Z2.75 F7800
G1 X106.071 Y105.271
;TYPE:Perimeter
G1 F900
G1 X114.729 Y105.271 E90.35811
G1 X114.729 Y114.729 E90.81299
G1 X105.271 Y114.729 E91.26786
G1 X105.271 Y105.271 E91.72274
G1 X106.011 Y105.271 E91.75833
G1 X105.286 Y104.886 F7800
G1 F3600
G1 X115.114 Y104.886 E92.23106
G1 X115.114 Y115.114 E92.72303
G1 X104.886 Y115.114 E93.215
G1 X104.886 Y104.886 E93.70697
G1 X105.226 Y104.886 E93.72332
G1 X104.5 Y104.685 F7800
;TYPE:External perimeter
G1 F1800
G1 X104.5 Y104.5 E93.73222
G1 X115.5 Y104.5 E94.26128
G1 X115.5 Y115.5 E94.79034
G1 X104.5 Y115.5 E95.3194
G1 X104.5 Y104.745 E95.83668
G1 X104.63 Y104.554 F7800
G1 X114.44 Y109.491
;TYPE:Internal infill
G1 F4800
G1 X114.44 Y111.805 E95.94797
G1 X105.56 Y114.184 E96.39008
G1 X105.56 Y113.741 E96.4114
G1 X106.259 Y114.44 E96.45893
